public/avatar/hat/139.svg

<svg xmlns:xlink="http://www.w3.org/1999/xlink" height="92.9" width="100.7" xmlns="http://www.w3.org/2000/svg"><use height="47.55" transform="translate(18.3 24.5)" width="39.45" xlink:href="#a"/><defs><g id="a" fill-rule="evenodd"><path d="M12.9 1.9q2.85 2.95 2.85 8l-.1 1.95q1.95.35 3 2.9l.45 2.1q0 3.15-3.5 4.95-2.15-8.3-4.65-12.5Q6.6 1.9-.4 1.65q-7.4.55-12.1 10.25-2.4 4.85-3.3 9.75-.15.7-.45.65-3.2-.25-4-3.95l-.1-1q0-2.8 3.3-4.85l-.25-2.2q0-3.7 2.1-6.6 3.75-5.15 13-5.7 10.75-.75 15.1 3.9" fill="#30202d" transform="translate(20.35 25.25)"/><path d="M10.8 8.8Q6.6 1.9-.45 1.65q-7.2 1.5-11.95 10.7-2.35 4.6-3.3 8.9-2.45-.25-3.05-3.2-.65-3.2 3.2-5.35-1.1-4 1.2-7.75Q-11.1-.25-2.1-.85 5.45-1.4 9.8 1.3q5.4 3.35 4.5 11.25 2.3.2 3.3 2.9 1.1 3-2.4 5.15-2.15-8.05-4.4-11.8" fill="#b56ea8" transform="translate(20.35 25.25)"/><path d="m-15.4 19.95-.1.3q-3.4-2.7-.8-7.05l.75-.5-.1-.5q3.05-4.15 4.35-5.4 2.8-2.7 6.05-3.1-6.8 4.55-10.15 16.25m29.7-7.4q.65.2.65 1.4 3 1.05 2.3 4.7-.6 1.1-2.05 1.95l-2.15-6.95Q11.8 10.15 10 7.6q1.95-.55 1.25-3.1-.6-2.05-2.05-3.6 5.15 3.05 5.2 9.75l-.1 1.9" fill="#8e3f87" transform="translate(20.35 25.25)"/><path d="M11 4.85q2.2 2.45 2.45 6.5t-1.65 6.1l-.55.1q-.35-.1-.35-.4-.3-5.2-2.3-8.25.65 1.95.65 5.25l-.1 2.2-.4.45q-.4 0-.55-.3-.7-1.4-6.05-5.25l-3.5-2.5q.45 1.3 2.7 4.45l.3.4.05.25-.1.3q-.2.3-.5.2-2.7-.45-5.6-2.35-2.85-1.85-4.05-3.95-.8 1.7-.8 4.45 0 3.4 1.35 6.9l.05.15-.2.4-.6.05q-4.4-3-5.3-7.35L-14 8.7q2.25-4.1 12.9-5.1Q9.05 2.65 11 4.85" fill="#30202d" transform="translate(20.35 25.25)"/><path d="M10.35 4.3q1.75 2.7 2.2 6 .45 3.45-.85 5.75Q11.35 8.7 6.2 5.3q2.5 4.25 2.35 10.1-1.2-1.8-5.2-4.4-4.4-2.85-5.85-4.5-.35 1.6.95 3.8l2 3q-5.75-1.75-9-6.9-1.4 1.65-1.65 4.75-.3 3.6 1.3 7.6-3.75-2.95-4.65-7.45l-.15-3.9Q-8.35-1 .2-.35 6.85.2 10.35 4.3" fill="#b56ea8" transform="translate(20.35 25.25)"/><path d="M1.5 7.8Q6 10.95 7.05 12q-.3-5.95-3.2-8.85 5.95 2.95 8.2 7.5 0-1.8-1.3-5.7 3.55 6.4.95 11.1Q11.35 8.7 6.2 5.3q2.5 4.25 2.35 10.1-1.2-1.8-5.2-4.4-4.4-2.85-5.85-4.5-.35 1.6.95 3.8l2 3q-5.75-1.75-9-6.9-1.4 1.65-1.65 4.75-.3 3.6 1.3 7.6-4.9-3.85-4.9-9.85.6 3.7 2.5 5.65-.5-2.1.6-5.8l1.55-5.2q.4 1.15 6.95 7.7-1.9-5.1-1-7.85 1 1.85 4.7 4.4" fill="#8e3f87" transform="translate(20.35 25.25)"/><path d="M-15.5-6.25q2.1-.4 3.7 2.15l5.7.1q1.6 0 1.95 1.5.2 1.1-1.2 1.8l-.1.05h-6q-.4 2.55-2.65 2.95-2.2.35-2.9-1.25l-.15-.7q0-.9 1.1-2-1.45-.95-1.45-2.3v-.25q.25-1.7 2-2.05" transform="translate(20.35 25.25)"/><path d="M-6.4-1.5h-5.5q-.3 3.3-2.95 2.6-1-.3-1.15-1.05-.2-.9 1-1.8-1.2-.5-1.35-1.45-.15-.85.5-1.4 1.85-1.55 3.6 1.65 1.9-.3 5.25.05.85 0 1.3.35.55.45-.7 1.05" fill="#fff" transform="translate(20.35 25.25)"/><path d="M-16.3-4q1.6.55 2.5 1.65l-1.25.6Q-16.75-2.6-16.3-4m3.75 3.05.65-.4q-.25 2.3-2.15 2.5-1.8.2-1.95-1.2 2.3.45 3.45-.9" fill="#909993" transform="translate(20.35 25.25)"/><path d="M4.7-1q-1.7-.1-2-1.55Q2.45-3.6 3.9-4.3l.1-.1h6q.4-2.55 2.7-2.95 2.15-.35 2.85 1.3l.15.65q0 .95-1.1 2 1.45 1 1.45 2.3v.3q-.25 1.65-2 2-2.1.4-3.7-2.15L4.7-1" transform="translate(20.35 25.25)"/><path d="M4.95-3.5h5.5q.3-3.3 3-2.6.95.25 1.1 1 .2.9-1 1.8 1.2.55 1.35 1.5.15.8-.5 1.4-1.85 1.5-3.6-1.65L5.55-2.1q-2.95-.2-.6-1.4" fill="#fff" transform="translate(20.35 25.25)"/><path d="M9.05-3.5q.2 1.05 0 1.45l-3.5-.05q-2.95-.2-.6-1.4h4.1m2.1 1.95q1.9.95 3.4-1.05 1.2 1.45-.35 2.35-1.55.85-3.05-1.3m.9-1.8L14.2-5.7q1.1 1-.55 2.35h-1.6" fill="#909993" transform="translate(20.35 25.25)"/><path d="m1.6-15.2-.05.7q1.75-1.65 2.8-4.35l.35-.3.45.1q1.15 1.15 1.15 5.3l-.15 2.05q1.55-1.65 1.55-2.55 0-.4.4-.5.35-.05.55.3 1.25 3-.25 6.65Q7-4.45 5-3.65l-.2.05-12.05.7q-.35.1-.5-.15L-11.3-8.3q-.55-1.95.85-5.05 1.3-3 2.8-3.75l.5.05.2.4v.1l-.25 2.3.1.9q.75-2.25 3.2-5.45 2.8-3.65 3.15-6l.4-.4q.3-.1.5.2 1.45 2.2 1.45 9.8" fill="#30202d" transform="translate(20.35 25.25)"/><path d="M4.85-4.7Q1.9-2.85-7.3-4.35l-2.9-4.25q-.5-1.6.2-3.9.7-2.25 1.85-2.85l.1 1.6q.3 1.85 1 3.3.45-2.7 3.45-6.55 3.05-3.8 3.4-5.95 1.7 5.9.5 10.6 2.65-.75 4.4-5.15.65.65.65 3.35 0 2.5-.4 4.05 1.1-.1 2.25-1.35 1.05-1.1 1.1-1.8.15 3.05-1.15 5.7-1.05 2.1-2.3 2.85" fill="#b56ea8" transform="translate(20.35 25.25)"/><path d="M.15-21.2q1 5.05.15 8.65l-3.05 2.15q2.6-7.2 2.9-10.8" fill="#8e3f87" transform="translate(20.35 25.25)"/><path d="M-5.95-6.35Q-7.8-7.6-7.1-10.5l.05.05.1-.45q.1 2.8 1 4.55" fill="#b56ea8" transform="translate(20.35 25.25)"/><path d="m-8.95-13.7.25-1.1.05-.15.5-.4.1 1.55q.25 1.85.95 3.3-.3 1.15-.05.9.2-.2.2-1.05.15 2.65 1 4.3-3.65-2.4-3-7.35M4.45-17l.25-.5q.65.65.65 3.35 0 2.5-.4 4.05 1.1-.1 2.25-1.35 1.05-1.1 1.1-1.8.15 3.05-1.15 5.7-1.05 2.1-2.3 2.85Q4.2-4.25 3-4l.05-.35q3-3 3-5-.6 1.25-2.1 1.9l-2.9 1.1 2.75-5.1q1.3-2.9.65-5.55" fill="#8e3f87" transform="translate(20.35 25.25)"/><path d="M7-3.3q.1 2-1.35 2.95Q4.7.7.35.95-6.4 1.2-7.95-.6q-1.7-2.05-.7-3.8.15-.3.45-.3Q3.55-4.05 5.5-5q.2-.2.45 0Q7-4.45 7-3.3" fill="#30202d" transform="translate(20.35 25.25)"/><path d="M5.3-4.25q1 .55.65 1.8Q5.7-1.35 5-.85 4 .2-.85.25q-4.95.1-6-1.15-1.4-1.65-.65-3.05l6.6.3q5.15-.05 6.2-.6" fill="#b56ea8" transform="translate(20.35 25.25)"/><path d="M5.3-4.25q.8.4.7 1.45Q.2.15-7.45-1.65q-.7-1.05-.05-2.3l6.6.3q5.15-.05 6.2-.6" fill="#b56ea8" transform="translate(20.35 25.25)"/><path d="M3.7-.85 6-2.8Q5.9-1.55 5-.85 4 .2-.85.25q-4.95.1-6-1.15l-.6-.75Q-4.8-.35-1.65-.6q1-.65 1.25-1.85.7.6.1 1.7 1.4-.6 2-2.1l.35 2.1q1.3-.95 2-2.5.25 1.15-.35 2.4" fill="#8e3f87" transform="translate(20.35 25.25)"/><path d="M-9.45-13.85v.25l.15-.4-.05 3.3q.3 1.65 1.4 4.15-1.8-1.15-2.1-2.4-.25-1.15-.1-2.55.65-1.6.7-2.35m8.9-7.35q-.15 2.8-3 8.15-1.7 3.15-1.8 5-.65-2.6-.45-3.85l1.75-4.45-.15 3.15q.2-1.6 1.65-4.2 1.65-3 2-4.2v.4m4.65 5.35.1-.3q.4 2.5-.65 4.3L1.3-8.75-1.45-6.4l1.1-3.65q.75-1.85 2.65-3.1l-1.25 2.7q2.3-1.95 3.05-5.4M4.15-3.5l-4.1.8-3.4.6q0-.3-.3-.5l-.2.85-.45-.85-.25 1.4-.6-1.25q-.2.5 0 1.4L-6.1-2.6q-.55.85 0 1.9-1.45-1.05-1.05-2.75l1.85.1 4.25.1.2.05 5-.3m-17.5 10.9q.25-3.3 2.4-5.25l3.6-1.4-1.95 2.1q-1.5 1.7-1.7 2.9l.35-1.7q-2.35 4.7-2.3 6.5-.6-1.1-.4-3.15M1.4 1.35 5.85.8Q4.75 1.95 2.4 2.35L.95 2.6l-.35.3-.7-.55q-.4.85.1 2.1.55 1.25 1.45 1.5Q.05 5.7-1.5 4.5-3.1 3.25-3.45 2-4.7 3.05-4.6 4.8l-.35-2.1Q-6.1 4.9-5 6.55l-2-2.2q-1.05-2.1.3-3.2V1l5.05.55 3.05-.2" fill="#ffe3fe" transform="translate(20.35 25.25)"/></g></defs></svg>

<?xml version="1.0" encoding="UTF-8" standalone="no"?>
<svg xmlns:xlink="http://www.w3.org/1999/xlink" height="92.9px" width="100.7px" xmlns="http://www.w3.org/2000/svg">
  <g transform="matrix(1.0, 0.0, 0.0, 1.0, 38.65, 49.75)">
    <use height="47.55" transform="matrix(1.0, 0.0, 0.0, 1.0, -20.35, -25.25)" width="39.45" xlink:href="#shape0"/>
  </g>
  <defs>
    <g id="shape0" transform="matrix(1.0, 0.0, 0.0, 1.0, 20.35, 25.25)">
      <path d="M12.9 1.9 Q15.75 4.85 15.75 9.9 L15.65 11.85 Q17.6 12.2 18.65 14.75 L19.1 16.85 Q19.1 20.0 15.6 21.8 13.45 13.5 10.95 9.3 6.6 1.9 -0.4 1.65 -7.8 2.2 -12.5 11.9 -14.9 16.75 -15.8 21.65 -15.95 22.35 -16.25 22.3 -19.45 22.05 -20.25 18.35 L-20.35 17.35 Q-20.35 14.55 -17.05 12.5 L-17.3 10.3 Q-17.3 6.6 -15.2 3.7 -11.45 -1.45 -2.2 -2.0 8.55 -2.75 12.9 1.9" fill="#30202d" fill-rule="evenodd" stroke="none"/>
      <path d="M10.8 8.8 Q6.6 1.9 -0.45 1.65 -7.65 3.15 -12.4 12.35 -14.75 16.95 -15.7 21.25 -18.15 21.0 -18.75 18.05 -19.4 14.85 -15.55 12.7 -16.65 8.7 -14.35 4.95 -11.1 -0.25 -2.1 -0.85 5.45 -1.4 9.8 1.3 15.2 4.65 14.3 12.55 16.6 12.75 17.6 15.45 18.7 18.45 15.2 20.6 13.05 12.55 10.8 8.8" fill="#b56ea8" fill-rule="evenodd" stroke="none"/>
      <path d="M-15.4 19.95 L-15.5 20.25 Q-18.9 17.55 -16.3 13.2 L-15.55 12.7 -15.65 12.2 Q-12.6 8.05 -11.3 6.8 -8.5 4.1 -5.25 3.7 -12.05 8.25 -15.4 19.95" fill="#8e3f87" fill-rule="evenodd" stroke="none"/>
      <path d="M14.3 12.55 Q14.95 12.75 14.95 13.95 17.95 15.0 17.25 18.65 16.65 19.75 15.2 20.6 L13.05 13.65 Q11.8 10.15 10.0 7.6 11.95 7.05 11.25 4.5 10.65 2.45 9.2 0.9 14.35 3.95 14.4 10.65 L14.3 12.55" fill="#8e3f87" fill-rule="evenodd" stroke="none"/>
      <path d="M11.0 4.85 Q13.2 7.3 13.45 11.35 13.7 15.4 11.8 17.45 L11.25 17.55 Q10.9 17.45 10.9 17.15 10.6 11.95 8.6 8.9 9.25 10.85 9.25 14.15 L9.15 16.35 8.75 16.8 Q8.35 16.8 8.2 16.5 7.5 15.1 2.15 11.25 L-1.35 8.75 Q-0.9 10.05 1.35 13.2 L1.65 13.6 1.7 13.85 1.6 14.15 Q1.4 14.45 1.1 14.35 -1.6 13.9 -4.5 12.0 -7.35 10.15 -8.55 8.05 -9.35 9.75 -9.35 12.5 -9.35 15.9 -8.0 19.4 L-7.95 19.55 -8.15 19.95 -8.75 20.0 Q-13.15 17.0 -14.05 12.65 L-14.0 8.7 Q-11.75 4.6 -1.1 3.6 9.05 2.65 11.0 4.85" fill="#30202d" fill-rule="evenodd" stroke="none"/>
      <path d="M10.35 4.3 Q12.1 7.0 12.55 10.3 13.0 13.75 11.7 16.05 11.35 8.7 6.2 5.3 8.7 9.55 8.55 15.4 7.35 13.6 3.35 11.0 -1.05 8.15 -2.5 6.5 -2.85 8.1 -1.55 10.3 L0.45 13.3 Q-5.3 11.55 -8.55 6.4 -9.95 8.05 -10.2 11.15 -10.5 14.75 -8.9 18.75 -12.65 15.8 -13.55 11.3 L-13.7 7.4 Q-8.35 -1.0 0.2 -0.35 6.85 0.2 10.35 4.3" fill="#b56ea8" fill-rule="evenodd" stroke="none"/>
      <path d="M1.5 7.8 Q6.0 10.95 7.05 12.0 6.75 6.05 3.85 3.15 9.8 6.1 12.05 10.65 12.05 8.85 10.75 4.95 14.3 11.35 11.7 16.05 11.35 8.7 6.2 5.3 8.7 9.55 8.55 15.4 7.35 13.6 3.35 11.0 -1.05 8.15 -2.5 6.5 -2.85 8.1 -1.55 10.3 L0.45 13.3 Q-5.3 11.55 -8.55 6.4 -9.95 8.05 -10.2 11.15 -10.5 14.75 -8.9 18.75 -13.8 14.9 -13.8 8.9 -13.2 12.6 -11.3 14.55 -11.8 12.45 -10.7 8.75 L-9.15 3.55 Q-8.75 4.7 -2.2 11.25 -4.1 6.15 -3.2 3.4 -2.2 5.25 1.5 7.8" fill="#8e3f87" fill-rule="evenodd" stroke="none"/>
      <path d="M-15.5 -6.25 Q-13.4 -6.65 -11.8 -4.1 L-6.1 -4.0 Q-4.5 -4.0 -4.15 -2.5 -3.95 -1.4 -5.35 -0.7 L-5.45 -0.65 -11.45 -0.65 Q-11.85 1.9 -14.1 2.3 -16.3 2.65 -17.0 1.05 L-17.15 0.35 Q-17.15 -0.55 -16.05 -1.65 -17.5 -2.6 -17.5 -3.95 L-17.5 -4.2 Q-17.25 -5.9 -15.5 -6.25" fill="#000000" fill-rule="evenodd" stroke="none"/>
      <path d="M-6.4 -1.5 L-11.9 -1.5 Q-12.2 1.8 -14.85 1.1 -15.85 0.8 -16.0 0.05 -16.2 -0.85 -15.0 -1.75 -16.2 -2.25 -16.35 -3.2 -16.5 -4.05 -15.85 -4.6 -14.0 -6.15 -12.25 -2.95 -10.35 -3.25 -7.0 -2.9 -6.15 -2.9 -5.7 -2.55 -5.15 -2.1 -6.4 -1.5" fill="#ffffff" fill-rule="evenodd" stroke="none"/>
      <path d="M-16.3 -4.0 Q-14.7 -3.45 -13.8 -2.35 L-15.05 -1.75 Q-16.75 -2.6 -16.3 -4.0" fill="#909993" fill-rule="evenodd" stroke="none"/>
      <path d="M-12.55 -0.95 L-11.9 -1.35 Q-12.15 0.95 -14.05 1.15 -15.85 1.35 -16.0 -0.05 -13.7 0.4 -12.55 -0.95" fill="#909993" fill-rule="evenodd" stroke="none"/>
      <path d="M4.7 -1.0 Q3.0 -1.1 2.7 -2.55 2.45 -3.6 3.9 -4.3 L4.0 -4.4 10.0 -4.4 Q10.4 -6.95 12.7 -7.35 14.85 -7.7 15.55 -6.05 L15.7 -5.4 Q15.7 -4.45 14.6 -3.4 16.05 -2.4 16.05 -1.1 L16.05 -0.8 Q15.8 0.85 14.05 1.2 11.95 1.6 10.35 -0.95 L4.7 -1.0" fill="#000000" fill-rule="evenodd" stroke="none"/>
      <path d="M4.95 -3.5 L10.45 -3.5 Q10.75 -6.8 13.45 -6.1 14.4 -5.85 14.55 -5.1 14.75 -4.2 13.55 -3.3 14.75 -2.75 14.9 -1.8 15.05 -1.0 14.4 -0.4 12.55 1.1 10.8 -2.05 L5.55 -2.1 Q2.6 -2.3 4.95 -3.5" fill="#ffffff" fill-rule="evenodd" stroke="none"/>
      <path d="M9.05 -3.5 Q9.25 -2.45 9.05 -2.05 L5.55 -2.1 Q2.6 -2.3 4.95 -3.5 L9.05 -3.5" fill="#909993" fill-rule="evenodd" stroke="none"/>
      <path d="M11.15 -1.55 Q13.05 -0.6 14.55 -2.6 15.75 -1.15 14.2 -0.25 12.65 0.6 11.15 -1.55" fill="#909993" fill-rule="evenodd" stroke="none"/>
      <path d="M12.05 -3.35 L14.2 -5.7 Q15.3 -4.7 13.65 -3.35 L12.05 -3.35" fill="#909993" fill-rule="evenodd" stroke="none"/>
      <path d="M1.6 -15.2 L1.55 -14.5 Q3.3 -16.15 4.35 -18.85 L4.7 -19.15 5.15 -19.05 Q6.3 -17.9 6.3 -13.75 L6.15 -11.7 Q7.7 -13.35 7.7 -14.25 7.7 -14.65 8.1 -14.75 8.45 -14.8 8.65 -14.45 9.9 -11.45 8.4 -7.8 7.0 -4.45 5.0 -3.65 L4.8 -3.6 -7.25 -2.9 Q-7.6 -2.8 -7.75 -3.05 L-11.3 -8.3 Q-11.85 -10.25 -10.45 -13.35 -9.15 -16.35 -7.65 -17.1 L-7.15 -17.05 -6.95 -16.65 -6.95 -16.55 -7.2 -14.25 -7.1 -13.35 Q-6.35 -15.6 -3.9 -18.8 -1.1 -22.45 -0.75 -24.8 L-0.35 -25.2 Q-0.05 -25.3 0.15 -25.0 1.6 -22.8 1.6 -15.2" fill="#30202d" fill-rule="evenodd" stroke="none"/>
      <path d="M4.85 -4.7 Q1.9 -2.85 -7.3 -4.35 L-10.2 -8.6 Q-10.7 -10.2 -10.0 -12.5 -9.3 -14.75 -8.15 -15.35 L-8.05 -13.75 Q-7.75 -11.9 -7.05 -10.45 -6.6 -13.15 -3.6 -17.0 -0.55 -20.8 -0.2 -22.95 1.5 -17.05 0.3 -12.35 2.95 -13.1 4.7 -17.5 5.35 -16.85 5.35 -14.15 5.35 -11.65 4.95 -10.1 6.05 -10.2 7.2 -11.45 8.25 -12.55 8.3 -13.25 8.45 -10.2 7.15 -7.55 6.1 -5.45 4.85 -4.7" fill="#b56ea8" fill-rule="evenodd" stroke="none"/>
      <path d="M0.15 -21.2 Q1.15 -16.15 0.3 -12.55 L-2.75 -10.4 Q-0.15 -17.6 0.15 -21.2" fill="#8e3f87" fill-rule="evenodd" stroke="none"/>
      <path d="M-5.95 -6.35 Q-7.8 -7.6 -7.1 -10.5 L-7.05 -10.45 -6.95 -10.9 Q-6.85 -8.1 -5.95 -6.35" fill="#b56ea8" fill-rule="evenodd" stroke="none"/>
      <path d="M-8.95 -13.7 L-8.7 -14.8 -8.65 -14.95 -8.15 -15.35 -8.05 -13.8 Q-7.8 -11.95 -7.1 -10.5 -7.4 -9.35 -7.15 -9.6 -6.95 -9.8 -6.95 -10.65 -6.8 -8.0 -5.95 -6.35 -9.6 -8.75 -8.95 -13.7" fill="#8e3f87" fill-rule="evenodd" stroke="none"/>
      <path d="M4.45 -17.0 L4.7 -17.5 Q5.35 -16.85 5.35 -14.15 5.35 -11.65 4.95 -10.1 6.05 -10.2 7.2 -11.45 8.25 -12.55 8.3 -13.25 8.45 -10.2 7.15 -7.55 6.1 -5.45 4.85 -4.7 4.2 -4.25 3.0 -4.0 L3.05 -4.35 Q6.05 -7.35 6.05 -9.35 5.45 -8.1 3.95 -7.45 L1.05 -6.35 3.8 -11.45 Q5.1 -14.35 4.45 -17.0" fill="#8e3f87" fill-rule="evenodd" stroke="none"/>
      <path d="M7.0 -3.3 Q7.1 -1.3 5.65 -0.35 4.7 0.7 0.35 0.95 -6.4 1.2 -7.95 -0.6 -9.65 -2.65 -8.65 -4.4 -8.5 -4.7 -8.2 -4.7 3.55 -4.05 5.5 -5.0 5.7 -5.2 5.95 -5.0 7.0 -4.45 7.0 -3.3" fill="#30202d" fill-rule="evenodd" stroke="none"/>
      <path d="M5.3 -4.25 Q6.3 -3.7 5.95 -2.45 5.7 -1.35 5.0 -0.85 4.0 0.2 -0.85 0.25 -5.8 0.35 -6.85 -0.9 -8.25 -2.55 -7.5 -3.95 L-0.9 -3.65 Q4.25 -3.7 5.3 -4.25" fill="#b56ea8" fill-rule="evenodd" stroke="none"/>
      <path d="M5.3 -4.25 Q6.1 -3.85 6.0 -2.8 0.2 0.15 -7.45 -1.65 -8.15 -2.7 -7.5 -3.95 L-0.9 -3.65 Q4.25 -3.7 5.3 -4.25" fill="#b56ea8" fill-rule="evenodd" stroke="none"/>
      <path d="M3.7 -0.85 L6.0 -2.8 Q5.9 -1.55 5.0 -0.85 4.0 0.2 -0.85 0.25 -5.8 0.35 -6.85 -0.9 L-7.45 -1.65 Q-4.8 -0.35 -1.65 -0.6 -0.65 -1.25 -0.4 -2.45 0.3 -1.85 -0.3 -0.75 1.1 -1.35 1.7 -2.85 L2.05 -0.75 Q3.35 -1.7 4.05 -3.25 4.3 -2.1 3.7 -0.85" fill="#8e3f87" fill-rule="evenodd" stroke="none"/>
      <path d="M-9.45 -13.85 L-9.45 -13.6 -9.3 -14.0 -9.35 -10.7 Q-9.05 -9.05 -7.95 -6.55 -9.75 -7.7 -10.05 -8.95 -10.3 -10.1 -10.15 -11.5 -9.5 -13.1 -9.45 -13.85" fill="#ffe3fe" fill-rule="evenodd" stroke="none"/>
      <path d="M-0.55 -21.2 Q-0.7 -18.4 -3.55 -13.05 -5.25 -9.9 -5.35 -8.05 -6.0 -10.65 -5.8 -11.9 L-4.05 -16.35 -4.2 -13.2 Q-4.0 -14.8 -2.55 -17.4 -0.9 -20.4 -0.55 -21.6 L-0.55 -21.2" fill="#ffe3fe" fill-rule="evenodd" stroke="none"/>
      <path d="M4.1 -15.85 L4.2 -16.15 Q4.6 -13.65 3.55 -11.85 L1.3 -8.75 -1.45 -6.4 -0.35 -10.05 Q0.4 -11.9 2.3 -13.15 L1.05 -10.45 Q3.35 -12.4 4.1 -15.85" fill="#ffe3fe" fill-rule="evenodd" stroke="none"/>
      <path d="M4.15 -3.5 L0.05 -2.7 -3.35 -2.1 Q-3.35 -2.4 -3.65 -2.6 L-3.85 -1.75 -4.3 -2.6 -4.55 -1.2 -5.15 -2.45 Q-5.35 -1.95 -5.15 -1.05 L-6.1 -2.6 Q-6.65 -1.75 -6.1 -0.7 -7.55 -1.75 -7.15 -3.45 L-5.3 -3.35 -1.05 -3.25 -0.85 -3.2 4.15 -3.5" fill="#ffe3fe" fill-rule="evenodd" stroke="none"/>
      <path d="M-13.35 7.4 Q-13.1 4.1 -10.95 2.15 L-7.35 0.75 -9.3 2.85 Q-10.8 4.55 -11.0 5.75 L-10.65 4.05 Q-13.0 8.75 -12.95 10.55 -13.55 9.45 -13.35 7.4" fill="#ffe3fe" fill-rule="evenodd" stroke="none"/>
      <path d="M1.4 1.35 L5.85 0.8 Q4.75 1.95 2.4 2.35 L0.95 2.6 0.6 2.9 -0.1 2.35 Q-0.5 3.2 0.0 4.45 0.55 5.7 1.45 5.95 0.05 5.7 -1.5 4.5 -3.1 3.25 -3.45 2.0 -4.7 3.05 -4.6 4.8 L-4.95 2.7 Q-6.1 4.9 -5.0 6.55 L-7.0 4.35 Q-8.05 2.25 -6.7 1.15 L-6.7 1.0 -1.65 1.55 1.4 1.35" fill="#ffe3fe" fill-rule="evenodd" stroke="none"/>
    </g>
  </defs>
</svg>
